packages/foundations/assets/icons/functional/images/notification/information_circle.svg

<svg xmlns="http://www.w3.org/2000/svg" width="32" height="32" fill="none"><path fill="#1A1C1F" fill-rule="evenodd" d="M14.72 2.06c-1.337.16-2.192.345-3.214.694a14 14 0 0 0-9.108 9.958 13.97 13.97 0 0 0 2.111 11.263c1.513 2.162 3.665 3.918 6.004 4.898 1.813.759 3.549 1.111 5.487 1.111 2.014 0 3.907-.403 5.746-1.224 3.133-1.398 5.81-4.13 7.127-7.273.76-1.814 1.111-3.55 1.11-5.487-.001-2.779-.782-5.401-2.282-7.665a14.06 14.06 0 0 0-9.621-6.178c-.537-.084-2.898-.153-3.36-.097m3.04 2.074c3.883.583 7.274 3.057 8.983 6.553.876 1.792 1.226 3.309 1.226 5.313 0 .777-.027 1.271-.094 1.707-.534 3.477-2.441 6.452-5.368 8.372-1.079.708-2.675 1.372-3.963 1.65-5.37 1.157-10.888-1.508-13.287-6.416a11.8 11.8 0 0 1-1.133-3.606c-.128-.844-.128-2.57 0-3.414.603-3.954 3.045-7.317 6.563-9.036 1.438-.703 2.776-1.075 4.406-1.224.474-.044 2.118.019 2.667.101m-2.452 4.062c-.33.121-.758.56-.872.894-.197.578-.069 1.124.366 1.558.432.433 1.006.556 1.584.339.306-.114.654-.431.821-.747.139-.263.139-1.017 0-1.28a1.94 1.94 0 0 0-.7-.706c-.287-.149-.874-.177-1.199-.058m-.028 4.954c-.416.11-.603.128-1.403.129-.997.001-1.087.021-1.354.303-.274.29-.34.765-.155 1.127.243.476.449.544 1.657.544h.962v5.76h-1.095c-1.367 0-1.563.062-1.792.56-.173.377-.08.908.201 1.158.287.255.291.256 3.699.256s3.412-.001 3.699-.256c.154-.137.299-.49.299-.731s-.145-.594-.299-.731c-.252-.224-.45-.256-1.591-.256h-1.095l-.001-3.586c-.001-3.373-.007-3.6-.099-3.8a.98.98 0 0 0-.552-.531c-.264-.11-.507-.098-1.081.054"/></svg>

<svg width="32" height="32" viewBox="0 0 32 32" fill="none" xmlns="http://www.w3.org/2000/svg"><path d="M14.720 2.060 C 13.383 2.220,12.528 2.405,11.506 2.754 C 6.953 4.310,3.537 8.044,2.398 12.712 C 1.455 16.573,2.232 20.722,4.509 23.975 C 6.022 26.137,8.174 27.893,10.513 28.873 C 12.326 29.632,14.062 29.984,16.000 29.984 C 18.014 29.984,19.907 29.581,21.746 28.760 C 24.879 27.362,27.556 24.630,28.873 21.487 C 29.633 19.673,29.984 17.937,29.983 16.000 C 29.982 13.221,29.201 10.599,27.701 8.335 C 25.479 4.983,22.049 2.781,18.080 2.157 C 17.543 2.073,15.182 2.004,14.720 2.060 M17.760 4.134 C 21.643 4.717,25.034 7.191,26.743 10.687 C 27.619 12.479,27.969 13.996,27.969 16.000 C 27.969 16.777,27.942 17.271,27.875 17.707 C 27.341 21.184,25.434 24.159,22.507 26.079 C 21.428 26.787,19.832 27.451,18.544 27.729 C 13.174 28.886,7.656 26.221,5.257 21.313 C 4.662 20.096,4.325 19.021,4.124 17.707 C 3.996 16.863,3.996 15.137,4.124 14.293 C 4.727 10.339,7.169 6.976,10.687 5.257 C 12.125 4.554,13.463 4.182,15.093 4.033 C 15.567 3.989,17.211 4.052,17.760 4.134 M15.308 8.196 C 14.978 8.317,14.550 8.756,14.436 9.090 C 14.239 9.668,14.367 10.214,14.802 10.648 C 15.234 11.081,15.808 11.204,16.386 10.987 C 16.692 10.873,17.040 10.556,17.207 10.240 C 17.346 9.977,17.346 9.223,17.207 8.960 C 17.068 8.697,16.757 8.384,16.507 8.254 C 16.220 8.105,15.633 8.077,15.308 8.196 M15.280 13.150 C 14.864 13.260,14.677 13.278,13.877 13.279 C 12.880 13.280,12.790 13.300,12.523 13.582 C 12.249 13.872,12.183 14.347,12.368 14.709 C 12.611 15.185,12.817 15.253,14.025 15.253 L 14.987 15.253 14.987 18.133 L 14.987 21.013 13.892 21.013 C 12.525 21.013,12.329 21.075,12.100 21.573 C 11.927 21.950,12.020 22.481,12.301 22.731 C 12.588 22.986,12.592 22.987,16.000 22.987 C 19.408 22.987,19.412 22.986,19.699 22.731 C 19.853 22.594,19.998 22.241,19.998 22.000 C 19.998 21.759,19.853 21.406,19.699 21.269 C 19.447 21.045,19.249 21.013,18.108 21.013 L 17.013 21.013 17.012 17.427 C 17.011 14.054,17.005 13.827,16.913 13.627 C 16.793 13.368,16.625 13.206,16.361 13.096 C 16.097 12.986,15.854 12.998,15.280 13.150 " fill="#1A1C1F" stroke="none" fill-rule="evenodd"></path></svg>
